shields/template_usade_wide.svg

<?xml version="1.0" encoding="UTF-8" standalone="no"?>
<!-- Created with Inkscape (http://www.inkscape.org/) -->

<svg
   xmlns:dc="http://purl.org/dc/elements/1.1/"
   xmlns:cc="http://creativecommons.org/ns#"
   xmlns:rdf="http://www.w3.org/1999/02/22-rdf-syntax-ns#"
   xmlns:svg="http://www.w3.org/2000/svg"
   xmlns="http://www.w3.org/2000/svg"
   xmlns:sodipodi="http://sodipodi.sourceforge.net/DTD/sodipodi-0.dtd"
   xmlns:inkscape="http://www.inkscape.org/namespaces/inkscape"
   width="750"
   height="600"
   viewbox="0 0 750 600"
   id="svg2"
   sodipodi:version="0.32"
   inkscape:version="0.91 r"
   version="1.0"
   sodipodi:docname="template_usade_wide.svg">
  <defs
     id="defs4" />
  <sodipodi:namedview
     id="base"
     pagecolor="#ffffff"
     bordercolor="#666666"
     borderopacity="1.0"
     inkscape:pageopacity="0.0"
     inkscape:pageshadow="2"
     inkscape:zoom="0.35355339"
     inkscape:cx="839.11464"
     inkscape:cy="174.06162"
     inkscape:document-units="px"
     inkscape:current-layer="layer1"
     inkscape:window-width="1920"
     inkscape:window-height="1020"
     inkscape:window-x="0"
     inkscape:window-y="0"
     showgrid="false"
     inkscape:window-maximized="1" />
  <metadata
     id="metadata7">
    <rdf:RDF>
      <cc:Work
         rdf:about="">
        <dc:format>image/svg+xml</dc:format>
        <dc:type
           rdf:resource="http://purl.org/dc/dcmitype/StillImage" />
        <dc:title></dc:title>
      </cc:Work>
    </rdf:RDF>
  </metadata>
  <g
     inkscape:label="Layer 1"
     inkscape:groupmode="layer"
     id="layer1">
    <g
       style="overflow:visible"
       id="g1364"
       transform="translate(-1044.714,-564.7806)">
      <g
         id="g3">
        <path
           d="M 1044.714,614.7806 C 1044.714,587.16634 1067.0993,564.7806 1094.714,564.7806 L 1744.714,564.7806 C 1772.3283,564.7806 1794.714,587.16634 1794.714,614.7806 L 1794.714,1114.7806 C 1794.714,1142.3958 1772.3283,1164.7806 1744.714,1164.7806 L 1094.714,1164.7806 C 1067.0993,1164.7806 1044.714,1142.3958 1044.714,1114.7806 L 1044.714,614.7806 L 1044.714,614.7806 z "
           id="path7" />
        <path
           id="path9"
           d="" />
      </g>
    </g>
    <path
       style="fill:#ffffff;fill-opacity:1;stroke:none;stroke-width:1;stroke-miterlimit:4;stroke-opacity:1"
       d="M 285.85121,12.5 L 464.14875,12.5 C 615.58531,12.5 737.5,140.725 737.5,300 C 737.5,459.27499 615.58531,587.5 464.14875,587.5 L 285.85121,587.5 C 134.41464,587.5 12.5,459.27499 12.5,300 C 12.5,140.725 134.41464,12.5 285.85121,12.5 z "
       id="path3057" />
    <path
       style="fill:none;fill-opacity:1;stroke:#000000;stroke-width:1.02277303;stroke-miterlimit:4;stroke-opacity:1"
       d="M 285.977,13.0114 L 464.02301,13.0114 C 615.24596,13.0114 736.98861,141.00832 736.98861,300.00001 C 736.98861,458.99169 615.24596,586.9886 464.02301,586.9886 L 285.977,586.9886 C 134.75405,586.9886 13.01139,458.99169 13.01139,300.00001 C 13.01139,141.00832 134.75405,13.0114 285.977,13.0114 z "
       id="rect2183" />
    <text
       xml:space="preserve"
       style="font-style:normal;font-variant:normal;font-weight:normal;font-stretch:normal;font-size:507.73693848px;line-height:125%;font-family:'Roadgeek 2014 Series C';-inkscape-font-specification:'Roadgeek 2014 Series C';text-align:center;letter-spacing:0px;word-spacing:0px;writing-mode:lr-tb;text-anchor:middle;fill:#000000;fill-opacity:1;stroke:none;stroke-width:1px;stroke-linecap:butt;stroke-linejoin:miter;stroke-opacity:1"
       x="375.22043"
       y="445.06769"
       id="text4140"
       sodipodi:linespacing="125%"><tspan
         sodipodi:role="line"
         id="tspan4142"
         x="375.2204"
         y="445.06769">***NUMBER***</tspan></text>
  </g>
</svg>

<svg xmlns="http://www.w3.org/2000/svg" viewbox="0 0 750 600" width="750" height="600"><g transform="translate(-1044.71-564.78)"><path d="m1044.71 614.78c0-27.614 22.385-50 50-50h650c27.614 0 50 22.386 50 50v500c0 27.615-22.386 50-50 50h-650c-27.615 0-50-22.385-50-50v-500"/></g><path d="m285.85 12.5h178.3c151.44 0 273.35 128.22 273.35 287.5 0 159.27-121.91 287.5-273.35 287.5h-178.3c-151.44 0-273.35-128.23-273.35-287.5 0-159.28 121.91-287.5 273.35-287.5" fill="#fff"/><path d="m285.98 13.01h178.05c151.22 0 272.97 128 272.97 286.99 0 158.99-121.74 286.99-272.97 286.99h-178.05c-151.22 0-272.97-128-272.97-286.99 0-158.99 121.74-286.99 272.97-286.99z" fill="none" stroke="#000" stroke-width="1.023"/><text x="375.22" y="445.07" font-family="&apos;Roadgeek 2014 Series C&apos;" letter-spacing="0" word-spacing="0" text-anchor="middle" text-align="center" line-height="125%" font-size="507.74"><tspan x="375.22" y="445.07">***NUMBER***</tspan></text></svg>
